X:1
T:Cooling, CM
T:Alonzo  Judson Abbey, 1858
T:Cooling, CM
T:Public Domain
C:Alonzo  Judson Abbey, 1858
Z:Public Domain
%%score ( 1 2 ) ( 3 4 )
L:1/8
M:3/2
K:D
V:1 treble 
V:2 treble 
V:3 bass 
V:4 bass 
V:1
 ([DF]2 [EG]2) | [FA]6 [FA]2 [^E^G]2 [FA]2 | [GB]2 [FA]2 [FA]4 ([EG]2 [DF]2) | %3
 [CE]6 [DF]2 [FA]2 [EG]2 | ([EG]4 [DF]4) (A2 d2) | [Dd]6 [Dd]2 [Dc]2 [DB]2 | %6
 [GB]2 [FA]2 [FA]4 (F2 A2) | [CE]6 [CE]2 [B,D]2 [CE]2 | [DF]8 |] %9
V:2
 x4 | x12 | x12 | x12 | x8 D4 | x12 | x8 D4 | x12 | x8 |] %9
V:3
 [D,D]4 | [D,D]6 [D,D]2 [D,D]2 [D,D]2 | [D,D]2 [D,D]2 [D,D]4 [D,A,]4 | %3
 [A,,A,]6 [A,,A,]2 [A,,A,]2 [A,,A,]2 | [D,A,]8 [D,F,]4 | [F,A,]6 [F,A,]2 [G,B,]2 (B,D) | %6
 [D,E]2 [D,E]2 [D,E]4 (A,2 F,2) | [A,,G,]6 [A,,G,]2 [B,,F,]2 [A,,A,]2 | [F,A,]8 |] %9
V:4
 x4 | x12 | x12 | x12 | x12 | x10 G,2 | x8 D,4 | x12 | x8 |] %9

